X:13355
T:Polkett efter John-Erik Mattson
Z:Lennart Sohlman, \"Alta, Sweden
R:Polkett
Q:124
A:Digerberget, S.J\"amtland
O:Sweden
M:2/4
L:1/16
K:D
A2df afbf | afbf a4 | A2df afbf | afbf g4 | \
A2ce b2a2 | Aceb a4 | g4 B4 | A2^GB A4| 
A2df afbf | afbf a4 | A2df afbf | afbf g4 | \
A2ce b2a2 | Aceb a4 | g4 B2c2 \
|1 d6 z2 :|2 d6 (AG) |:
F3A d2e2 | f6 e2 | d2c2 B2A2 | G6 (GF) | \
E2[Ec][Ec] [E2c2][E2c2] | [E6c6] (Bc) | \
e2d2 A2AB | A6 (AG) | 
F2FA d2de | f6 e2 | d2c2 B2A2 | G6 (GF) | \
E2[Ec][Ec] [E2c2][E2c2] | [E6c6] (Bc) | \
e2d2 d3e |1 d6 (AG) :|2 d6 z2 |]
